public/img/clients/metrolinx.svg

<svg width="200" height="100" viewBox="0 0 200 100" fill="none" xmlns="http://www.w3.org/2000/svg">
<path d="M58.0999 73.4C58.6999 73.4 59.2999 73.9 59.2999 74.5V75.5C59.2999 76.1 58.7999 76.6 58.0999 76.6H46.9C46.3 76.6 45.7 76.1 45.7 75.5V61C45.7 60.4 46.2 59.9 46.9 59.9H57.4C58 59.9 58.5999 60.4 58.5999 61V62C58.5999 62.6 58.1 63.1 57.4 63.1H50.0999V66.2H56.7999C57.4 66.2 58 66.7 58 67.3V68.3C58 68.9 57.4999 69.4 56.7999 69.4H50.0999V73.4H58.0999Z" fill="#231F20"/>
<path d="M22.2 61C22.2 60.4 22.7 59.9 23.4 59.9H27.4C27.9999 59.9 28.6999 60.4 28.7999 61L31.2999 71.3C31.4 71.9 31.6 72.4 31.6 72.4C31.6 72.4 31.7999 71.9 31.9 71.3L34.5 61C34.7 60.4 35.3 59.9 36 59.9H40C40.6 59.9 41.2 60.4 41.2 61V75.6C41.2 76.2 40.7 76.7 40 76.7H38.2C37.6 76.7 37 76.2 37 75.6V64.7C37 64.1 37 63.6 37 63.6C37 63.6 36.8 64.1 36.7 64.7L33.7999 75.6C33.5999 76.2 32.9999 76.7 32.2999 76.7H31C30.4 76.7 29.7 76.2 29.5 75.6L26.5 64.7C26.3 64.1 26.2 63.6 26.2 63.6C26.2 63.6 26.2 64.1 26.2 64.7V75.5C26.2 76.1 25.7 76.6 25 76.6H23.4C22.8 76.6 22.2 76.1 22.2 75.5V61Z" fill="#231F20"/>
<path d="M71 75.5C71 76.1 70.5 76.6 69.8 76.6H67.8C67.2 76.6 66.6 76.1 66.6 75.5V63.1H63.2C62.6 63.1 62 62.6 62 62V61C62 60.4 62.5 59.9 63.2 59.9H74.3C74.9 59.9 75.5 60.4 75.5 61V62C75.5 62.6 75 63.1 74.3 63.1H71V75.5Z" fill="#231F20"/>
<path d="M128.3 73.1C128.9 73.1 129.5 73.6 129.5 74.2V75.5C129.5 76.1 129 76.6 128.3 76.6H119.5C118.9 76.6 118.3 76.1 118.3 75.5V61C118.3 60.4 118.8 59.9 119.5 59.9H121.5C122.1 59.9 122.7 60.4 122.7 61V73.1H128.3Z" fill="#231F20"/>
<path d="M132.9 61C132.9 60.4 133.4 59.9 134.1 59.9H136.1C136.7 59.9 137.3 60.4 137.3 61V75.6C137.3 76.2 136.8 76.7 136.1 76.7H134.1C133.5 76.7 132.9 76.2 132.9 75.6V61Z" fill="#231F20"/>
<path d="M141.3 61C141.3 60.4 141.8 59.9 142.5 59.9H144.6C145.2 59.9 146 60.3 146.4 60.9L151.6 69.7C151.9 70.2 152.2 70.7 152.2 70.7C152.2 70.7 152.2 70.2 152.2 69.6V61C152.2 60.4 152.7 59.9 153.4 59.9H155C155.6 59.9 156.2 60.4 156.2 61V75.6C156.2 76.2 155.7 76.7 155 76.7H153C152.4 76.7 151.6 76.3 151.2 75.7L146 67.1C145.7 66.6 145.4 66.1 145.4 66.1C145.4 66.1 145.4 66.6 145.4 67.2V75.5C145.4 76.1 144.9 76.6 144.2 76.6H142.6C142 76.6 141.4 76.1 141.4 75.5V61H141.3Z" fill="#231F20"/>
<path d="M165.6 67.6L160.5 60.7001C160.1 60.2001 160.3 59.8 161 59.8H163.9C164.5 59.8 165.3 60.2 165.7 60.8L168.3 65L170.9 60.8C171.2 60.3 172 59.8 172.7 59.8H175.6C176.2 59.8 176.5 60.2001 176.1 60.7001L171 67.6L177 75.7C177.4 76.2 177.2 76.6 176.5 76.6H173.5C172.9 76.6 172 76.2 171.7 75.6L168.3 70.3001L164.8 75.6C164.5 76.1 163.6 76.6 163 76.6H160C159.4 76.6 159.1 76.2 159.5 75.7L165.6 67.6Z" fill="#231F20"/>
<path d="M83.1999 67.5001H87.1999C88.5999 67.5001 89.4999 66.8001 89.4999 65.2001C89.4999 63.6001 88.5999 63.0001 87.1999 62.9001H83.1999V67.5001ZM93.8999 65.4001C93.8999 67.6001 92.4999 69.3001 90.2999 69.9001L93.6999 75.7001C93.9999 76.2001 93.7999 76.7001 93.0999 76.7001H90.5999C89.9999 76.7001 89.1999 76.3001 88.8999 75.7001L85.9999 70.6001H83.1999V75.5001C83.1999 76.1001 82.6999 76.6001 81.9999 76.6001H79.9999C79.3999 76.6001 78.7999 76.1001 78.7999 75.5001V61.0001C78.7999 60.4001 79.2999 59.9001 79.9999 59.9001H87.5999C91.4999 59.8001 93.8999 61.6001 93.8999 65.4001Z" fill="#231F20"/>
<path d="M105.8 62.9001C103.3 62.9001 101.3 64.5 101.3 68.2C101.3 70.7 102.3 73.5 105.8 73.5C109 73.5 110.3 70.8 110.3 68.2C110.3 65.6 109 62.9001 105.8 62.9001ZM105.8 77.1C100.2 77.1 97 72.9 97 68.2C97 63.5 100.3 59.3 105.8 59.3C111.4 59.3 114.6 63.5 114.6 68.2C114.6 73 111.4 77.1 105.8 77.1Z" fill="#231F20"/>
<path d="M101.1 46.3V49.5V52H103.8V49C108.6 47.7 112.4 44.0001 113.8 39.4001H116.9V36.8H111C110.3 41.8 106.2 45.7 101.1 46.3Z" fill="#231F20"/>
<path d="M85.6 39.4001C87 44.0001 90.8 47.7 95.6 49V52H98.3V46.3C93.1 45.7 89 41.7 88.4 36.8H82.5V39.4001H85.6Z" fill="#231F20"/>
<path d="M88.4 34.1C89 29.1 93.1 25.2 98.3 24.6V18.9H95.6V21.9C90.8 23.2 87 26.9 85.6 31.5H82.5V34.1H88.4Z" fill="#231F20"/>
<path d="M101.1 21.4V24.6C106.3 25.2 110.4 29.1 111 34.1H116.9V31.5H113.8C112.4 26.9 108.6 23.2 103.8 21.9V18.9H101.1V21.4Z" fill="#231F20"/>
<path d="M92.7 30.1C92.7 29.6 93.1 29.3 93.6 29.3H96.6C97.1 29.3 97.6 29.7 97.7 30.1L99.6 37.6C99.7 38 99.8 38.4001 99.8 38.4001C99.8 38.4001 99.9 38 100 37.6L101.9 30.1C102 29.7 102.5 29.3 103 29.3H105.9C106.4 29.3 106.8 29.7 106.8 30.1V40.8C106.8 41.3 106.4 41.6 105.9 41.6H104.6C104.1 41.6 103.7 41.2 103.7 40.8V32.9001C103.7 32.4001 103.7 32.1 103.7 32.1C103.7 32.1 103.6 32.5001 103.5 32.9001L101.4 40.9001C101.3 41.3001 100.8 41.7001 100.3 41.7001H99.2C98.7 41.7001 98.2 41.3001 98.1 40.9001L95.9 32.9001C95.8 32.5001 95.7 32.1 95.7 32.1C95.7 32.1 95.7 32.5001 95.7 32.9001V40.8C95.7 41.3 95.3 41.6 94.8 41.6H93.6C93.1 41.6 92.7 41.2 92.7 40.8V30.1Z" fill="#231F20"/>
</svg>

<svg xmlns="http://www.w3.org/2000/svg" focusable="false" role="img" viewBox="0 0 200 100" fill="currentColor">
  <path d="M58.1 73.4c.6 0 1.2.5 1.2 1.1v1c0 .6-.5 1.1-1.2 1.1H46.9c-.6 0-1.2-.5-1.2-1.1V61c0-.6.5-1.1 1.2-1.1h10.5c.6 0 1.2.5 1.2 1.1v1c0 .6-.5 1.1-1.2 1.1h-7.3v3.1h6.7c.6 0 1.2.5 1.2 1.1v1c0 .6-.5 1.1-1.2 1.1h-6.7v4h8zM22.2 61c0-.6.5-1.1 1.2-1.1h4c.6 0 1.3.5 1.4 1.1l2.5 10.3c.1.6.3 1.1.3 1.1s.2-.5.3-1.1L34.5 61c.2-.6.8-1.1 1.5-1.1h4c.6 0 1.2.5 1.2 1.1v14.6c0 .6-.5 1.1-1.2 1.1h-1.8c-.6 0-1.2-.5-1.2-1.1V64.7v-1.1s-.2.5-.3 1.1l-2.9 10.9c-.2.6-.8 1.1-1.5 1.1H31c-.6 0-1.3-.5-1.5-1.1l-3-10.9c-.2-.6-.3-1.1-.3-1.1v11.9c0 .6-.5 1.1-1.2 1.1h-1.6c-.6 0-1.2-.5-1.2-1.1V61zM71 75.5c0 .6-.5 1.1-1.2 1.1h-2c-.6 0-1.2-.5-1.2-1.1V63.1h-3.4c-.6 0-1.2-.5-1.2-1.1v-1c0-.6.5-1.1 1.2-1.1h11.1c.6 0 1.2.5 1.2 1.1v1c0 .6-.5 1.1-1.2 1.1H71v12.4zM128.3 73.1c.6 0 1.2.5 1.2 1.1v1.3c0 .6-.5 1.1-1.2 1.1h-8.8c-.6 0-1.2-.5-1.2-1.1V61c0-.6.5-1.1 1.2-1.1h2c.6 0 1.2.5 1.2 1.1v12.1h5.6zM132.9 61c0-.6.5-1.1 1.2-1.1h2c.6 0 1.2.5 1.2 1.1v14.6c0 .6-.5 1.1-1.2 1.1h-2c-.6 0-1.2-.5-1.2-1.1V61zM141.3 61c0-.6.5-1.1 1.2-1.1h2.1c.6 0 1.4.4 1.8 1l5.2 8.8.6 1V61c0-.6.5-1.1 1.2-1.1h1.6c.6 0 1.2.5 1.2 1.1v14.6c0 .6-.5 1.1-1.2 1.1h-2c-.6 0-1.4-.4-1.8-1l-5.2-8.6-.6-1v9.4c0 .6-.5 1.1-1.2 1.1h-1.6c-.6 0-1.2-.5-1.2-1.1V61h-.1zM165.6 67.6l-5.1-6.9c-.4-.5-.2-.9.5-.9h2.9c.6 0 1.4.4 1.8 1l2.6 4.2 2.6-4.2c.3-.5 1.1-1 1.8-1h2.9c.6 0 .9.4.5.9l-5.1 6.9 6 8.1c.4.5.2.9-.5.9h-3c-.6 0-1.5-.4-1.8-1l-3.4-5.3-3.5 5.3c-.3.5-1.2 1-1.8 1h-3c-.6 0-.9-.4-.5-.9l6.1-8.1zM83.2 67.5h4c1.4 0 2.3-.7 2.3-2.3 0-1.6-.9-2.2-2.3-2.3h-4v4.6zm10.7-2.1c0 2.2-1.4 3.9-3.6 4.5l3.4 5.8c.3.5.1 1-.6 1h-2.5c-.6 0-1.4-.4-1.7-1L86 70.6h-2.8v4.9c0 .6-.5 1.1-1.2 1.1h-2c-.6 0-1.2-.5-1.2-1.1V61c0-.6.5-1.1 1.2-1.1h7.6c3.9-.1 6.3 1.7 6.3 5.5zM105.8 62.9c-2.5 0-4.5 1.6-4.5 5.3 0 2.5 1 5.3 4.5 5.3 3.2 0 4.5-2.7 4.5-5.3 0-2.6-1.3-5.3-4.5-5.3zm0 14.2c-5.6 0-8.8-4.2-8.8-8.9s3.3-8.9 8.8-8.9c5.6 0 8.8 4.2 8.8 8.9 0 4.8-3.2 8.9-8.8 8.9zM101.1 46.3V52h2.7v-3c4.8-1.3 8.6-5 10-9.6h3.1v-2.6H111c-.7 5-4.8 8.9-9.9 9.5zM85.6 39.4c1.4 4.6 5.2 8.3 10 9.6v3h2.7v-5.7c-5.2-.6-9.3-4.6-9.9-9.5h-5.9v2.6h3.1zM88.4 34.1c.6-5 4.7-8.9 9.9-9.5v-5.7h-2.7v3c-4.8 1.3-8.6 5-10 9.6h-3.1v2.6h5.9zM101.1 21.4v3.2c5.2.6 9.3 4.5 9.9 9.5h5.9v-2.6h-3.1c-1.4-4.6-5.2-8.3-10-9.6v-3h-2.7v2.5z"/>
  <path d="M92.7 30.1c0-.5.4-.8.9-.8h3c.5 0 1 .4 1.1.8l1.9 7.5.2.8.2-.8 1.9-7.5c.1-.4.6-.8 1.1-.8h2.9c.5 0 .9.4.9.8v10.7c0 .5-.4.8-.9.8h-1.3c-.5 0-.9-.4-.9-.8v-7.9-.8l-.2.8-2.1 8c-.1.4-.6.8-1.1.8h-1.1c-.5 0-1-.4-1.1-.8l-2.2-8-.2-.8V40.8c0 .5-.4.8-.9.8h-1.2c-.5 0-.9-.4-.9-.8V30.1z"/>
</svg>
